build/assets/icons/click.svg

<svg width="124" height="50" viewBox="0 0 124 50" fill="none" xmlns="http://www.w3.org/2000/svg">
<g clip-path="url(#clip0_436_3837)">
<path d="M65.3 33.8C64.2 33.8 63.1999 33.6 62.2999 33.3C61.3999 33 60.6 32.5 59.9 31.8C59.2 31.1 58.6999 30.3 58.2999 29.3C57.8999 28.3 57.7 27.1 57.7 25.8V25.2C57.7 24 57.8999 22.9 58.2999 21.9C58.6999 21 59.3 20.2 60 19.5C60.7 18.8 61.5 18.4 62.4 18C63.3 17.7 64.3 17.5 65.3 17.5C66.4 17.5 67.2999 17.6 68.1999 17.9C68.9999 18.2 69.7 18.6 70.3 19.1C70.9 19.6 71.2999 20.2 71.6999 20.9C71.9999 21.6 72.2 22.3 72.3 23.1H68.4C68.2 22.4 67.8 21.8 67.4 21.4C66.9 21 66.3 20.8 65.4 20.8C64.9 20.8 64.4 20.9 64 21.1C63.6 21.3 63.1999 21.5 62.7999 21.9C62.4999 22.3 62.2 22.7 62 23.3C61.8 23.8 61.7 24.5 61.7 25.3V25.9C61.7 26.7 61.8 27.4 62 28C62.2 28.6 62.3999 29.1 62.7999 29.4C63.0999 29.8 63.5 30.1 64 30.2C64.4 30.4 64.9 30.5 65.4 30.5C66.2 30.5 66.8 30.3 67.4 29.9C67.9 29.5 68.3 28.9 68.5 28.2H72.4C72.3 29.1 72.0999 29.8 71.6999 30.5C71.2999 31.2 70.7999 31.8 70.1999 32.3C69.5999 32.8 68.8999 33.2 68.0999 33.4C67.1999 33.7 66.3 33.8 65.3 33.8Z" fill="black"/>
<path d="M80.2001 33.7C79.3001 33.7 78.5001 33.6 77.9001 33.5C77.3001 33.3 76.7001 33 76.3001 32.6C75.9001 32.2 75.6001 31.6 75.4001 30.9C75.2001 30.2 75.1001 29.3 75.1001 28.3V13H79.0001V27.8C79.0001 28.3 79.0001 28.7 79.1001 29C79.2001 29.3 79.3001 29.6 79.4001 29.8C79.6001 30 79.8001 30.2 80.0001 30.2C80.3001 30.3 80.6001 30.3 81.0001 30.3C81.2001 30.3 81.4001 30.3 81.6001 30.3C81.8001 30.3 81.9001 30.3 82.1001 30.3V33.5C82.0001 33.5 81.9001 33.5 81.7001 33.6C81.6001 33.6 81.4001 33.6 81.2001 33.6C81.0001 33.6 80.9001 33.6 80.7001 33.6H80.2001V33.7Z" fill="black"/>
<path d="M86.8 16.3C86.1 16.3 85.5 16.1 85.1 15.7C84.7 15.3 84.5 14.8 84.5 14.2C84.5 13.6 84.7 13.1 85.1 12.7C85.5 12.3 86.1 12.1 86.8 12.1C87.5 12.1 88.1 12.3 88.5 12.7C88.9 13.1 89.1 13.6 89.1 14.2C89.1 14.8 88.9 15.3 88.5 15.7C88.1 16.1 87.6 16.3 86.8 16.3ZM84.9 18H88.8V33.5H84.9V18Z" fill="black"/>
<path d="M99.4 33.8C98.3 33.8 97.3 33.6 96.4 33.3C95.5 33 94.7 32.5 94 31.8C93.3 31.1 92.8 30.3 92.4 29.3C92 28.3 91.8 27.1 91.8 25.8V25.2C91.8 24 92 22.9 92.4 21.9C92.8 21 93.4 20.2 94.1 19.5C94.8 18.8 95.6 18.4 96.5 18C97.4 17.7 98.4 17.5 99.4 17.5C100.5 17.5 101.4 17.6 102.3 17.9C103.1 18.2 103.8 18.6 104.4 19.1C105 19.6 105.4 20.2 105.8 20.9C106.1 21.6 106.3 22.3 106.4 23.1H102.5C102.3 22.4 101.9 21.8 101.5 21.4C101 21 100.4 20.8 99.5 20.8C99 20.8 98.5 20.9 98.1 21.1C97.7 21.3 97.3 21.5 96.9 21.9C96.6 22.3 96.3 22.7 96.1 23.3C95.9 23.8 95.8 24.5 95.8 25.3V25.9C95.8 26.7 95.9 27.4 96.1 28C96.3 28.6 96.5 29.1 96.9 29.4C97.2 29.8 97.6 30.1 98.1 30.2C98.5 30.4 99 30.5 99.5 30.5C100.3 30.5 100.9 30.3 101.5 29.9C102 29.5 102.4 28.9 102.6 28.2H106.5C106.4 29.1 106.2 29.8 105.8 30.5C105.4 31.2 104.9 31.8 104.3 32.3C103.7 32.8 103 33.2 102.2 33.4C101.3 33.7 100.4 33.8 99.4 33.8Z" fill="black"/>
<path d="M109.1 33.5V13H112.9V24.4L118.6 18H123.1L117.3 24.5L123.7 33.5H119.1L114.7 27.2L112.9 29.1V33.5H109.1Z" fill="black"/>
<path d="M16 33.9C9.8 27.7 9.9 22.1 16 15.9C22.1 9.8 27.8 9.7 34 15.9C40.2 22.1 40.1 27.7 34 33.9C30.9 37 28 38.5 25 38.5C22 38.6 19.1 37 16 33.9ZM8.5 8.5C2.9 14.1 0 19.5 0 24.9V25C0 30.4 2.8 35.8 8.5 41.4C14.2 47.1 19.6 49.9 24.9 49.9H25C30.4 49.9 35.8 47 41.4 41.4C52.7 30.1 52.8 19.8 41.4 8.4C35.8 2.8 30.4 0 25 0C19.5 0 14.1 2.8 8.5 8.5Z" fill="url(#paint0_linear_436_3837)"/>
</g>
<defs>
    <linearGradient id="paint0_linear_436_3837" x1="8.037" y1="41.7857" x2="41.426" y2="8.5843" gradientUnits="userSpaceOnUse">
    <stop stop-color="#0073FF"/>
    <stop offset="1" stop-color="#00DEFF"/>
    </linearGradient>
    <clipPath id="clip0_436_3837">
    <rect width="124" height="50" fill="white"/>
    </clipPath>
</defs>
</svg>

<svg width="124" height="50" fill="none" xmlns="http://www.w3.org/2000/svg"><g clip-path="url(#clip0_436_3837)"><path d="M65.3 33.8c-1.1 0-2.1-.2-3-.5-.9-.3-1.7-.8-2.4-1.5s-1.2-1.5-1.6-2.5c-.4-1-.6-2.2-.6-3.5v-.6c0-1.2.2-2.3.6-3.3.4-.9 1-1.7 1.7-2.4s1.5-1.1 2.4-1.5c.9-.3 1.9-.5 2.9-.5 1.1 0 2 .1 2.9.4.8.3 1.5.7 2.1 1.2.6.5 1 1.1 1.4 1.8.3.7.5 1.4.6 2.2h-3.9c-.2-.7-.6-1.3-1-1.7-.5-.4-1.1-.6-2-.6-.5 0-1 .1-1.4.3-.4.2-.8.4-1.2.8-.3.4-.6.8-.8 1.4-.2.5-.3 1.2-.3 2v.6c0 .8.1 1.5.3 2.1.2.6.4 1.1.8 1.4.3.4.7.7 1.2.8.4.2.9.3 1.4.3.8 0 1.4-.2 2-.6.5-.4.9-1 1.1-1.7h3.9c-.1.9-.3 1.6-.7 2.3-.4.7-.9 1.3-1.5 1.8s-1.3.9-2.1 1.1c-.9.3-1.8.4-2.8.4zm14.9-.1c-.9 0-1.7-.1-2.3-.2-.6-.2-1.2-.5-1.6-.9-.4-.4-.7-1-.9-1.7-.2-.7-.3-1.6-.3-2.6V13H79v14.8c0 .5 0 .9.1 1.2.1.3.2.6.3.8.2.2.4.4.6.4.3.1.6.1 1 .1h1.1v3.2c-.1 0-.2 0-.4.1h-1.5v.1zm6.6-17.4c-.7 0-1.3-.2-1.7-.6-.4-.4-.6-.9-.6-1.5s.2-1.1.6-1.5c.4-.4 1-.6 1.7-.6s1.3.2 1.7.6c.4.4.6.9.6 1.5s-.2 1.1-.6 1.5c-.4.4-.9.6-1.7.6zM84.9 18h3.9v15.5h-3.9V18zm14.5 15.8c-1.1 0-2.1-.2-3-.5-.9-.3-1.7-.8-2.4-1.5s-1.2-1.5-1.6-2.5c-.4-1-.6-2.2-.6-3.5v-.6c0-1.2.2-2.3.6-3.3.4-.9 1-1.7 1.7-2.4s1.5-1.1 2.4-1.5c.9-.3 1.9-.5 2.9-.5 1.1 0 2 .1 2.9.4.8.3 1.5.7 2.1 1.2.6.5 1 1.1 1.4 1.8.3.7.5 1.4.6 2.2h-3.9c-.2-.7-.6-1.3-1-1.7-.5-.4-1.1-.6-2-.6-.5 0-1 .1-1.4.3-.4.2-.8.4-1.2.8-.3.4-.6.8-.8 1.4-.2.5-.3 1.2-.3 2v.6c0 .8.1 1.5.3 2.1.2.6.4 1.1.8 1.4.3.4.7.7 1.2.8.4.2.9.3 1.4.3.8 0 1.4-.2 2-.6.5-.4.9-1 1.1-1.7h3.9c-.1.9-.3 1.6-.7 2.3-.4.7-.9 1.3-1.5 1.8s-1.3.9-2.1 1.1c-.9.3-1.8.4-2.8.4zm9.7-.3V13h3.8v11.4l5.7-6.4h4.5l-5.8 6.5 6.4 9h-4.6l-4.4-6.3-1.8 1.9v4.4h-3.8z" fill="#000"/><path d="M16 33.9c-6.2-6.2-6.1-11.8 0-18 6.1-6.1 11.8-6.2 18 0 6.2 6.2 6.1 11.8 0 18-3.1 3.1-6 4.6-9 4.6-3 .1-5.9-1.5-9-4.6zM8.5 8.5C2.9 14.1 0 19.5 0 24.9v.1c0 5.4 2.8 10.8 8.5 16.4 5.7 5.7 11.1 8.5 16.4 8.5h.1c5.4 0 10.8-2.9 16.4-8.5 11.3-11.3 11.4-21.6 0-33C35.8 2.8 30.4 0 25 0 19.5 0 14.1 2.8 8.5 8.5z" fill="url(#paint0_linear_436_3837)"/></g><defs><linearGradient id="paint0_linear_436_3837" x1="8.037" y1="41.786" x2="41.426" y2="8.584" gradientUnits="userSpaceOnUse"><stop stop-color="#0073FF"/><stop offset="1" stop-color="#00DEFF"/></linearGradient><clipPath id="clip0_436_3837"><path fill="#fff" d="M0 0h124v50H0z"/></clipPath></defs></svg>
